static/logos/airtable-glyph-color.svg

<svg width="50" height="42" viewBox="0 0 50 42" fill="none" xmlns="http://www.w3.org/2000/svg">
<g clip-path="url(#clip0_1_3589)">
<path d="M22.0441 0.520842L3.63665 8.13749C2.61302 8.56112 2.62363 10.0154 3.65367 10.4236L22.1379 17.7537C23.762 18.3977 25.5706 18.3977 27.1946 17.7537L45.6791 10.4234C46.7088 10.0154 46.72 8.5614 45.6958 8.13777L27.2889 0.520563C25.6096 -0.174335 23.7231 -0.174335 22.0438 0.520563" fill="#FCB400"/>
<path d="M26.3125 21.7562V40.0679C26.3125 40.9386 27.1908 41.5352 28.0003 41.2143L48.5973 33.2195C48.827 33.1285 49.0241 32.9705 49.163 32.766C49.3018 32.5616 49.376 32.3202 49.3759 32.0731V13.7616C49.3759 12.8907 48.4977 12.2943 47.6881 12.6152L27.0911 20.61C26.8615 20.7012 26.6644 20.8592 26.5255 21.0636C26.3868 21.268 26.3125 21.5094 26.3125 21.7565" fill="#18BFFF"/>
<path d="M21.499 22.7014L15.3863 25.6529L14.7656 25.9529L1.86195 32.1357C1.04428 32.5302 0 31.9341 0 31.0255V13.8387C0 13.51 0.168558 13.2261 0.394605 13.0126C0.48734 12.9203 0.592547 12.8414 0.707163 12.7782C1.01526 12.5932 1.45507 12.5438 1.82902 12.6917L21.3963 20.4448C22.3909 20.8395 22.4691 22.2331 21.499 22.7017" fill="#F82B60"/>
<path d="M21.5028 22.7014L15.3901 25.6529L0.398438 13.0124C0.491191 12.9201 0.596397 12.8414 0.710996 12.7782C1.01909 12.5932 1.45891 12.5438 1.83286 12.6917L21.4001 20.4448C22.3948 20.8395 22.4729 22.2331 21.5028 22.7017" fill="black" fill-opacity="0.25"/>
</g>
<defs>
<clipPath id="clip0_1_3589">
<rect width="50" height="41.8605" fill="white"/>
</clipPath>
</defs>
</svg>

<svg xmlns="http://www.w3.org/2000/svg" width="76.19" height="64" fill="none" viewBox="0 0 50 42"><g clip-path="url(#a)"><path fill="#FCB400" d="M22.044.52 3.637 8.138c-1.024.424-1.013 1.878.017 2.287l18.484 7.33a6.86 6.86 0 0 0 5.057 0l18.484-7.33c1.03-.409 1.041-1.863.017-2.286L27.289.52a6.859 6.859 0 0 0-5.245 0"/><path fill="#18BFFF" d="M26.313 21.756v18.312c0 .87.878 1.467 1.687 1.146l20.597-7.995a1.233 1.233 0 0 0 .779-1.146V13.762c0-.871-.878-1.468-1.688-1.147L27.091 20.61a1.235 1.235 0 0 0-.779 1.146"/><path fill="#F82B60" d="m21.499 22.701-6.113 2.952-.62.3-12.904 6.183C1.044 32.53 0 31.934 0 31.026V13.838c0-.329.169-.613.395-.826.092-.093.198-.172.312-.235a1.315 1.315 0 0 1 1.122-.086l19.567 7.753c.995.395 1.073 1.788.103 2.257"/><path fill="#000" fill-opacity=".25" d="m21.503 22.701-6.113 2.952L.398 13.013c.093-.093.198-.172.313-.235a1.315 1.315 0 0 1 1.122-.086L21.4 20.445c.995.395 1.073 1.788.103 2.257"/></g><defs><clipPath id="a"><path fill="#fff" d="M0 0h50v41.861H0z"/></clipPath></defs></svg>
